packages/match-logos/mono/svg/dell.svg

<svg fill="none" height="30" viewBox="0 0 97 30" width="97" xmlns="http://www.w3.org/2000/svg"><path d="m78.0769 1.63462h9.6154v18.17308h8.4615v8.4615h-18.0769zm-36.9231-1.63462c2.0193 1.34615 4.1347 2.69231 6.0577 4.13462-4.3269 2.6923-8.5577 5.48076-12.8846 8.26918.6731.4808 1.4423.8654 2.0193 1.4424 4.3269-2.7885 8.6538-5.48081 12.9807-8.26928 1.9231 1.15385 3.8462 2.40385 5.6731 3.75-4.3269 2.69228-8.4615 5.57688-12.7885 8.36538.6731.4808 1.4423.8654 2.1154 1.3462 4.4231-2.6923 8.75-5.4808 13.0769-8.2693v-9.13458h9.6154v18.17308c2.6923.0961 5.6731 0 8.5577.0961v8.4616h-18.0769v-8.6539c-5.3846 3.1731-10.8654 6.827-16.1538 10.2885-5.577-3.6538-10.9616-7.5-16.5385-11.0577-1.6346 5.0962-5.4808 8.9423-11.8269 9.4231-3.94234.2884-8.46157-.1923-12.9808 0v-26.73078c5.67308.38461 11.9231-.769235 16.4423.67307 4.0385 1.25 6.8269 4.42308 8.1731 8.36541 5.5769-3.55771 11.0577-7.11541 16.5384-10.6731zm-32.01918 10.1923v9.6154c2.30768 0 4.03848.0961 5.38458-.8654 2.0193-1.5385 2.4039-5.3846.6731-7.4038-1.1538-1.3462-3.1731-1.63465-5.96153-1.5385-.09615 0-.09615.0962-.09615.1923z" fill="#1f304c"/></svg>

<svg width="97" height="30" viewBox="0 0 97 30" fill="none" xmlns="http://www.w3.org/2000/svg">
<path d="M78.0769 1.63462H87.6923V19.8077H96.1538V28.2692H78.0769V1.63462ZM41.1538 0C43.1731 1.34615 45.2885 2.69231 47.2115 4.13462C42.8846 6.82692 38.6538 9.61538 34.3269 12.4038C35 12.8846 35.7692 13.2692 36.3462 13.8462C40.6731 11.0577 45 8.36539 49.3269 5.57692C51.25 6.73077 53.1731 7.98077 55 9.32692C50.6731 12.0192 46.5385 14.9038 42.2115 17.6923C42.8846 18.1731 43.6538 18.5577 44.3269 19.0385C48.75 16.3462 53.0769 13.5577 57.4038 10.7692V1.63462H67.0192V19.8077C69.7115 19.9038 72.6923 19.8077 75.5769 19.9038V28.3654H57.5V19.7115C52.1154 22.8846 46.6346 26.5385 41.3462 30C35.7692 26.3462 30.3846 22.5 24.8077 18.9423C23.1731 24.0385 19.3269 27.8846 12.9808 28.3654C9.03846 28.6538 4.51923 28.1731 0 28.3654V1.63462C5.67308 2.01923 11.9231 0.865385 16.4423 2.30769C20.4808 3.55769 23.2692 6.73077 24.6154 10.6731C30.1923 7.11539 35.6731 3.55769 41.1538 0ZM9.13462 10.1923V19.8077C11.4423 19.8077 13.1731 19.9038 14.5192 18.9423C16.5385 17.4038 16.9231 13.5577 15.1923 11.5385C14.0385 10.1923 12.0192 9.90385 9.23077 10C9.13462 10 9.13462 10.0962 9.13462 10.1923Z" fill="#1F304C"/>
</svg>
